kturtle-script-v1.0
@(learn) shape1 $run@(,) $n{
@(if) $n > 0 {
shape2 $run/3@(,) $n-1
@(turnright) 90
shape1 $run/3@(,) $n-1
}@(else){
@(forward) $run*3
}
}
@(learn) shape2 $run@(,) $n{
@(if) $n > 0 {
shape2 $run/3@(,) $n-1
@(turnleft) 90
shape1 $run/3@(,) $n-1
}@(else){
@(forward) $run*3
}
}
@(reset)
$k = 10
@(turnright) 180
shape2 100000@(,) $k