kturtle-script-v1.0
@(learn) shape $run@(,) $n{
  @(if) $n > 0  {
  shape $run/3@(,) $n-1 @(turnleft) 60
  shape $run/3@(,) $n-1 @(turnright) 120
  shape $run/3@(,) $n-1 @(turnleft) 60
  shape $run/3@(,) $n-1 
  } 
  @(else){
    @(forward) $run*3
  }
}
@(reset)
@(turnright) 90
shape 50@(,) 3