kturtle-script-v1.0
@(learn) shape $run@(,) $n@(,) $k{
  @(if) $n > 0 {
    @(repeat) $k{
      @(repeat) 180{@(forward) $run @(turnright) 1}
      @(turnleft) 180
    }
    @(turnright) 180 @(pu)
    @(repeat) 180{@(backward) 2 @(turnleft) 1}
    @(pd)
    shape $run / 2@(,) $n - 1@(,) $k*2
  }
}
@(reset)
@(turnright) 90 @(pu)
@(backward) 100 @(turnleft) 90 @(pd)
shape 2@(,) 3@(,) 1