kturtle-script-v1.0
@(reset)
@(turnright) 90 @(pu)
@(backward) 100 @(pd)
@(turnleft) 90
@(repeat) 4{
  @(repeat) 4{
    @(repeat) 180{@(forward) 0.2 @(turnright) 1}
    @(repeat) 180{@(forward) 0.2 @(turnleft)  1}
  }
  @(turnright) 90 @(pu) @(backward) 183
  @(turnright) 90 @(forward) 15
  @(turnleft) 180 @(pd)
}
