kturtle-script-v1.0
@(learn) shape $run@(,) $n{
  @(forward) $run*3/6
  @(if) $n > 0 {
  @(turnleft) 40
  shape $run*2/3@(,) $n-1
  @(turnright) 40
  } 
  @(forward) $run*1.8/7
  @(if) $n > 0 {
  @(turnright) 20
  shape $run*2/3@(,) $n-1
  @(turnleft) 20
  } 
  @(forward) $run*3/6
  @(if) $n > 0 {
  @(turnright) 20
  shape $run*2/3@(,) $n-1
  @(turnleft) 20
  }
  @(pu)
  @(backward) $run+$run*1.8/7
  @(pd)
}
@(reset)
@(pu) @(backward) 100
@(pd)
shape 100@(,) 5